static/img/icons/error.svg

<?xml version="1.0" encoding="UTF-8" standalone="no"?>
<svg width="50px" height="50px" viewBox="0 0 50 50" version="1.1" xmlns="http://www.w3.org/2000/svg" xmlns:xlink="http://www.w3.org/1999/xlink" xmlns:sketch="http://www.bohemiancoding.com/sketch/ns">
    <!-- Generator: Sketch 3.4.2 (15857) - http://www.bohemiancoding.com/sketch -->
    <title>error_outline</title>
    <desc>Created with Sketch.</desc>
    <defs></defs>
    <g id="source{d}" stroke="none" stroke-width="1" fill="none" fill-rule="evenodd" sketch:type="MSPage">
        <g id="Desktop-Mobile-Want-to-Be-Copy" sketch:type="MSArtboardGroup" transform="translate(-135.000000, -1022.000000)" fill="#AABCDA">
            <g id="error_outline" sketch:type="MSLayerGroup" transform="translate(135.000000, 1022.000000)">
                <path d="M25,45.04 C36.015,45.04 45.04,36.0175 45.04,25 C45.04,13.9825 36.0175,4.96 25,4.96 C13.9825,4.96 4.96,13.9825 4.96,25 C4.96,36.0175 13.9825,45.04 25,45.04 L25,45.04 Z M25,0.04 C38.8275,0.04 49.96,11.1725 49.96,25 C49.96,38.8275 38.8275,49.96 25,49.96 C11.1725,49.96 0.04,38.8275 0.04,25 C0.04,11.1725 11.1725,0.04 25,0.04 L25,0.04 Z M22.54,12.46 L27.4625,12.46 L27.4625,27.46 L22.54,27.46 L22.54,12.46 L22.54,12.46 Z M22.54,32.5 L27.4625,32.5 L27.4625,37.54 L22.54,37.54 L22.54,32.5 L22.54,32.5 Z" id="Shape" sketch:type="MSShapeGroup"></path>
            </g>
        </g>
    </g>
</svg>

<svg width="50" height="50" viewBox="0 0 50 50" xmlns="http://www.w3.org/2000/svg"><title>error_outline</title><path d="M25 45.04c11.015 0 20.04-9.023 20.04-20.04 0-11.018-9.023-20.04-20.04-20.04C13.982 4.96 4.96 13.983 4.96 25S13.983 45.04 25 45.04zm0-45A24.906 24.906 0 0 1 49.96 25 24.906 24.906 0 0 1 25 49.96 24.906 24.906 0 0 1 .04 25 24.906 24.906 0 0 1 25 .04zm-2.46 12.42h4.922v15H22.54v-15zm0 20.04h4.922v5.04H22.54V32.5z" fill="#AABCDA" fill-rule="evenodd"/></svg>
